X:74
T:score163
L:1/8
Q:1/4=96
M:6/8
I:linebreak $
K:D
!f! A | (DFA dfa) | (geg fdA) | (DFA dfa) |$ (gec d2)!mf! f/g/ | (afe ^dba) | (ge=d cag) | %7
 (fA=c Bgf) |$ ebd (d^c)A |!f! D z z z3 |] %10
